app/dist/common/images/chicken-soup.svg

<svg fill="none" height="18" viewBox="0 0 18 18" width="18" xmlns="http://www.w3.org/2000/svg"><path d="m0 0h18v18h-18z" fill="#f0f3fa"/><path clip-rule="evenodd" d="m10.2726 10.3334c-.43471.2432-1.30411.9049-1.30411 1.6068-.01699.3533.26489 1.0598 1.52821 1.0598 1.5792 0 2.8935-1.2421 2.8935-2.2677 0-.5006-.4053-1.12333-.8203-1.76091-.4353-.6687-.8811-1.35372-.8811-1.93124 0-1.12816 1.1309-1.57258 1.5894-1.57258.4584 0 .8456.41024.8456.99141 0 .46494-.3328.84707-.4992.98001.4584-.06077 1.3754-.46493 1.3754-1.59537 0-1.41304-2.0173-.72931-2.8426-.2507-.8252.47861-1.518 1.17374-1.518 2.0284 0 .40496.3888 1.021.798 1.6693.4545.71998.934 1.47968.934 2.03428 0 1.0539-.8558 1.2307-1.2939 1.2307s-1.20226-.3875-1.20226-1.1054c0-.5743.26486-.9838.39736-1.1168zm-2.77658-2.99566c.19779-.56324.6429-1.83079-.07561-1.90853-.92557-.10015-3.431 1.75976-3.431 4.74989-.03724.6248.22341 1.8743 1.5639 1.8743s2.57991-1.4117 3.03207-2.11748c-.2447 1.02058-1.31496 3.06168-3.63848 3.06168-.64896.0382-1.9469-.3662-1.9469-2.2891 0-2.40358 2.04266-5.7085 4.94705-5.7085.36172.00954 1.08516.20316 1.08516.90134 0 .87273-1.54795 3.29061-2.39373 3.29061-.11703-.06199-.31598-.3033-.17554-.77257.17554-.58659.43083-.81551.95747-.81551-.01785 0 .01861-.10382.07561-.26613z" fill="#1e397b" fill-rule="evenodd"/></svg>

<!-- by TradingView --><svg width="18" height="18" viewBox="0 0 18 18" fill="none" xmlns="http://www.w3.org/2000/svg">
<rect width="18" height="18" fill="#F0F3FA"/>
<path fill-rule="evenodd" clip-rule="evenodd" d="M10.2726 10.3334C9.83789 10.5766 8.96849 11.2383 8.96849 11.9402C8.9515 12.2935 9.23338 13 10.4967 13C12.0759 13 13.3902 11.7579 13.3902 10.7323C13.3902 10.2317 12.9849 9.60897 12.5699 8.97139C12.1346 8.30269 11.6888 7.61767 11.6888 7.04015C11.6888 5.91199 12.8197 5.46757 13.2782 5.46757C13.7366 5.46757 14.1238 5.87781 14.1238 6.45898C14.1238 6.92392 13.791 7.30605 13.6246 7.43899C14.083 7.37822 15 6.97406 15 5.84362C15 4.43058 12.9827 5.11431 12.1574 5.59292C11.3322 6.07153 10.6394 6.76666 10.6394 7.62132C10.6394 8.02628 11.0282 8.64232 11.4374 9.29062C11.8919 10.0106 12.3714 10.7703 12.3714 11.3249C12.3714 12.3788 11.5156 12.5556 11.0775 12.5556C10.6394 12.5556 9.87524 12.1681 9.87524 11.4502C9.87524 10.8759 10.1401 10.4664 10.2726 10.3334ZM7.49602 7.33774C7.69381 6.7745 8.13892 5.50695 7.42041 5.42921C6.49484 5.32906 3.98941 7.18897 3.98941 10.1791C3.95217 10.8039 4.21282 12.0534 5.55331 12.0534C6.8938 12.0534 8.13322 10.6417 8.58538 9.93592C8.34068 10.9565 7.27042 12.9976 4.9469 12.9976C4.29794 13.0358 3 12.6314 3 10.7085C3 8.30492 5.04266 5 7.94705 5C8.30877 5.00954 9.03221 5.20316 9.03221 5.90134C9.03221 6.77407 7.48426 9.19195 6.63848 9.19195C6.52145 9.12996 6.3225 8.88865 6.46294 8.41938C6.63848 7.83279 6.89377 7.60387 7.42041 7.60387C7.40256 7.60387 7.43902 7.50005 7.49602 7.33774Z" fill="#1E397B"/>
</svg>
